packages/kaspersky-hexa-ui-icons/src/iconsSVGs/24/CronjobK8S.svg

<svg xmlns="http://www.w3.org/2000/svg" width="24" height="24" fill="none" viewBox="0 0 24 24"><path fill="#000" fill-rule="evenodd" d="M16 6.2c0 .9941.8059 1.8 1.8 1.8h2.4c.9941 0 1.8-.8059 1.8-1.8V3.8c0-.9941-.8059-1.8-1.8-1.8h-2.4c-.9941 0-1.8.8059-1.8 1.8zm2-.2V4h2v2zM2 13.2c0 .9941.8059 1.8 1.8 1.8h2.4c.9941 0 1.8-.8059 1.8-1.8v-2.4C8 9.8059 7.1941 9 6.2 9H3.8C2.8059 9 2 9.8059 2 10.8zM15.5 9C11.9101 9 9 11.9101 9 15.5s2.9101 6.5 6.5 6.5 6.5-2.9101 6.5-6.5S19.0899 9 15.5 9M4 13v-2h2v2zm7 2.5c0-2.4853 2.0147-4.5 4.5-4.5s4.5 2.0147 4.5 4.5-2.0147 4.5-4.5 4.5-4.5-2.0147-4.5-4.5m4-3.5c.5523 0 1 .4477 1 1v2h2c.5523 0 1 .4477 1 1s-.4477 1-1 1h-3c-.5523 0-1-.4477-1-1v-3c0-.5523.4477-1 1-1M3.8 22c-.9941 0-1.8-.8059-1.8-1.8v-2.4c0-.9941.8059-1.8 1.8-1.8h2.4c.9941 0 1.8.8059 1.8 1.8v2.4c0 .9941-.8059 1.8-1.8 1.8zm.2-4v2h2v-2z"/></svg>

<svg width="24" height="24" viewBox="0 0 24 24" fill="none" xmlns="http://www.w3.org/2000/svg">
<path fill-rule="evenodd" clip-rule="evenodd" d="M16 6.2C16 7.19411 16.8059 8 17.8 8H20.2C21.1941 8 22 7.19411 22 6.2V3.8C22 2.80589 21.1941 2 20.2 2H17.8C16.8059 2 16 2.80589 16 3.8V6.2ZM18 6V4H20V6H18Z" fill="black"/>
<path fill-rule="evenodd" clip-rule="evenodd" d="M2 13.2C2 14.1941 2.80589 15 3.8 15H6.2C7.19411 15 8 14.1941 8 13.2V10.8C8 9.80589 7.19411 9 6.2 9H3.8C2.80589 9 2 9.80589 2 10.8V13.2ZM4 13V11H6V13H4Z" fill="black"/>
<path fill-rule="evenodd" clip-rule="evenodd" d="M3.8 22C2.80589 22 2 21.1941 2 20.2V17.8C2 16.8059 2.80589 16 3.8 16H6.2C7.19411 16 8 16.8059 8 17.8V20.2C8 21.1941 7.19411 22 6.2 22H3.8ZM4 18V20H6V18H4Z" fill="black"/>
<path d="M16 13C16 12.4477 15.5523 12 15 12C14.4477 12 14 12.4477 14 13V16C14 16.5523 14.4477 17 15 17H18C18.5523 17 19 16.5523 19 16C19 15.4477 18.5523 15 18 15H16V13Z" fill="black"/>
<path fill-rule="evenodd" clip-rule="evenodd" d="M9 15.5C9 11.9101 11.9101 9 15.5 9C19.0899 9 22 11.9101 22 15.5C22 19.0899 19.0899 22 15.5 22C11.9101 22 9 19.0899 9 15.5ZM15.5 11C13.0147 11 11 13.0147 11 15.5C11 17.9853 13.0147 20 15.5 20C17.9853 20 20 17.9853 20 15.5C20 13.0147 17.9853 11 15.5 11Z" fill="black"/>
</svg>
